src/basic/800/u2606-star.svg

<svg width="14" height="16" viewBox="0 0 14 16" fill="none" xmlns="http://www.w3.org/2000/svg">
<path fill-rule="evenodd" clip-rule="evenodd" d="M7,0.60648l0.47771,1.5459l1.18948,3.84925h3.83281h1.4781l-1.1746,0.89733l-3.12201,2.38502l1.19541,3.86842l0.4618,1.4946l-1.243,-0.9497l-3.0957,-2.3648l-3.09566,2.3648l-1.24309,0.9497l0.46185,-1.4946l1.1954,-3.86842l-3.12203,-2.38502l-1.17462,-0.89733h1.47815h3.8328l1.18949,-3.84925zM7,3.99353l-0.82066,2.65572l-0.1089,0.35238h-0.36882h-2.72347l2.22457,1.69942l0.27715,0.21173l-0.10297,0.33322l-0.83652,2.707l2.15609,-1.6471l0.30353,-0.2318l0.30353,0.2318l2.15609,1.6471l-0.83652,-2.707l-0.10297,-0.33322l0.27715,-0.21173l2.22462,-1.69942h-2.72353h-0.36882l-0.10889,-0.35238z" fill="black"/>
</svg>

<svg width="14" height="16" viewBox="0 0 14 16" fill="none" xmlns="http://www.w3.org/2000/svg">
<path fill-rule="evenodd" clip-rule="evenodd" d="M7 0.606476L7.47771 2.15238L8.66719 6.00163H12.5H13.9781L12.8035 6.89896L9.68149 9.28398L10.8769 13.1524L11.3387 14.647L10.0957 13.6973L7 11.3325L3.90434 13.6973L2.66125 14.647L3.1231 13.1524L4.3185 9.28398L1.19647 6.89896L0.0218506 6.00163H1.5H5.3328L6.52229 2.15238L7 0.606476ZM7 3.99353L6.17934 6.64925L6.07044 7.00163H5.70162H2.97815L5.20272 8.70105L5.47987 8.91278L5.3769 9.246L4.54038 11.953L6.69647 10.3059L7 10.0741L7.30353 10.3059L9.45962 11.953L8.6231 9.246L8.52013 8.91278L8.79728 8.70105L11.0219 7.00163H8.29837H7.92955L7.82066 6.64925L7 3.99353Z" fill="black"/>
</svg>
